src/images/services/crane-transportation.svg

<svg width="96" height="96" viewBox="0 0 96 96" fill="none" xmlns="http://www.w3.org/2000/svg">
<path fill-rule="evenodd" clip-rule="evenodd" d="M89.25 4.25C86.6241 4.25 84.3764 5.86944 83.4511 8.16408L83.4345 8.17527L44.0595 35.1753C43.604 35.4876 43.4879 36.11 43.8003 36.5655C44.1126 37.021 44.735 37.1371 45.1905 36.8247L83.012 10.89C83.1463 13.0713 84.3994 14.95 86.2047 15.9592C75.5049 27.6833 58.165 47.0054 56.9691 48.5003C56.6241 48.9316 56.694 49.5609 57.1253 49.9059C57.5566 50.2509 58.1859 50.181 58.5309 49.7497C59.6961 48.2931 77.5928 28.3506 88.2618 16.6723C88.3818 16.6914 88.5029 16.707 88.625 16.7191V52.625H86.625C86.0727 52.625 85.625 53.0727 85.625 53.625C85.625 54.1773 86.0727 54.625 86.625 54.625H88.625V56.2429C88.625 56.735 88.8064 57.2098 89.1345 57.5765L92.2702 61.0811C93.5688 62.5325 93.4735 64.7547 92.0552 66.0895C90.6826 67.3814 88.5445 67.3917 87.1594 66.1132L86.806 65.787C86.1329 65.1656 85.75 64.2911 85.75 63.375C85.75 62.8227 85.3023 62.375 84.75 62.375C84.1977 62.375 83.75 62.8227 83.75 63.375C83.75 64.8493 84.3661 66.2566 85.4495 67.2566L85.8029 67.5828C87.9596 69.5736 91.2886 69.5575 93.426 67.5459C95.6342 65.4675 95.7828 62.0075 93.7607 59.7475L90.625 56.2429V54.625H92.625C93.1773 54.625 93.625 54.1773 93.625 53.625C93.625 53.0727 93.1773 52.625 92.625 52.625H90.625V16.5983C93.4153 15.9718 95.5 13.4794 95.5 10.5C95.5 7.04822 92.7018 4.25 89.25 4.25ZM85 10.5C85 8.15279 86.9028 6.25 89.25 6.25C91.5972 6.25 93.5 8.15279 93.5 10.5C93.5 12.8472 91.5972 14.75 89.25 14.75C86.9028 14.75 85 12.8472 85 10.5ZM19.5 34.25C15.634 34.25 12.5 37.384 12.5 41.25V62.75H11.75C10.0931 62.75 8.75 64.0931 8.75 65.75V67.7157C3.98135 69.118 0.5 73.5274 0.5 78.75C0.5 85.1013 5.64873 90.25 12 90.25H59.25C65.6013 90.25 70.75 85.1013 70.75 78.75C70.75 72.9937 66.5207 68.2252 61 67.3823V65.75C61 64.3521 60.0439 63.1775 58.75 62.8445V61.25C58.75 46.3383 46.6617 34.25 31.75 34.25H23.25H19.5ZM19.5 36.25H22.25L22.25 62.75H14.5V41.25C14.5 38.4886 16.7386 36.25 19.5 36.25ZM24.25 36.25L24.25 62.75H56.75V61.25C56.75 47.4429 45.5571 36.25 31.75 36.25H24.25ZM13.5 64.75H23.25H57.75H58C58.5523 64.75 59 65.1977 59 65.75V67.25H12H10.75V65.75C10.75 65.1977 11.1977 64.75 11.75 64.75H12.5H13.5ZM12 69.25H59.25C64.4967 69.25 68.75 73.5033 68.75 78.75C68.75 83.9967 64.4967 88.25 59.25 88.25H12C6.75329 88.25 2.5 83.9967 2.5 78.75C2.5 73.5033 6.7533 69.25 12 69.25ZM9.375 78.125C8.82271 78.125 8.375 78.5727 8.375 79.125C8.375 79.6773 8.82271 80.125 9.375 80.125H59.625C60.1773 80.125 60.625 79.6773 60.625 79.125C60.625 78.5727 60.1773 78.125 59.625 78.125H9.375Z" fill="#00CC66"/>
</svg>

<svg xmlns="http://www.w3.org/2000/svg" width="96" height="96" fill="none"><path fill="#0C6" fill-rule="evenodd" d="M89.25 4.25a6.252 6.252 0 0 0-5.799 3.914l-.016.011-39.376 27a1 1 0 1 0 1.132 1.65L83.011 10.89a6.25 6.25 0 0 0 3.193 5.07c-10.7 11.723-28.04 31.045-29.236 32.54a1 1 0 1 0 1.562 1.25c1.165-1.457 19.062-21.4 29.73-33.078.12.02.242.035.364.047v35.906h-2a1 1 0 1 0 0 2h2v1.618a2 2 0 0 0 .51 1.334l3.135 3.504a3.59 3.59 0 0 1-5.11 5.032l-.354-.326a3.283 3.283 0 0 1-1.056-2.412 1 1 0 1 0-2 0c0 1.474.616 2.882 1.7 3.882l.353.326a5.59 5.59 0 0 0 7.958-7.835l-3.136-3.505v-1.618h2a1 1 0 1 0 0-2h-2V16.598A6.25 6.25 0 0 0 89.25 4.25ZM85 10.5a4.25 4.25 0 1 1 8.5 0 4.25 4.25 0 0 1-8.5 0ZM19.5 34.25a7 7 0 0 0-7 7v21.5h-.75a3 3 0 0 0-3 3v1.966C3.981 69.118.5 73.527.5 78.75c0 6.351 5.149 11.5 11.5 11.5h47.25c6.351 0 11.5-5.149 11.5-11.5 0-5.756-4.23-10.525-9.75-11.368V65.75a3.001 3.001 0 0 0-2.25-2.906V61.25c0-14.912-12.088-27-27-27H19.5Zm0 2h2.75v26.5H14.5v-21.5a5 5 0 0 1 5-5Zm4.75 0v26.5h32.5v-1.5c0-13.807-11.193-25-25-25h-7.5ZM13.5 64.75H58a1 1 0 0 1 1 1v1.5H10.75v-1.5a1 1 0 0 1 1-1h1.75Zm-1.5 4.5h47.25a9.5 9.5 0 0 1 0 19H12a9.5 9.5 0 0 1 0-19Zm-2.625 8.875a1 1 0 1 0 0 2h50.25a1 1 0 1 0 0-2H9.375Z" clip-rule="evenodd"/></svg>
